build/img/icons/calendar.svg

<svg xmlns="http://www.w3.org/2000/svg" viewBox="0 0 58 58"><path fill="#599a42" stroke="#3d61ad" d="M48 4v4h-7V4H17v4h-7V4H2v11h54V4z"/><path fill="transparent" stroke="#3d61ad" d="M10 15H2v43h54V15H17z"/><path d="M39 22H10v29h38V22h-9zm-9 2h7v7h-7v-7zm7 16h-7v-7h7v7zm-16-7h7v7h-7v-7zm0-9h7v7h-7v-7zm-9 0h7v7h-7v-7zm0 9h7v7h-7v-7zm7 16h-7v-7h7v7zm9 0h-7v-7h7v7zm9 0h-7v-7h7v7zm9 0h-7v-7h7v7zm0-9h-7v-7h7v7zm-7-9v-7h7v7h-7z" fill="#3d61ad"/><path fill="#28384c" d="M10 0h7v8h-7zm31 0h7v8h-7z"/><path fill="#7fc241" d="M30 33h7v7h-7z"/></svg>

<?xml version="1.0" encoding="iso-8859-1"?>
<!-- Generator: Adobe Illustrator 19.0.0, SVG Export Plug-In . SVG Version: 6.00 Build 0)  -->
<svg version="1.1" id="Capa_1" xmlns="http://www.w3.org/2000/svg" xmlns:xlink="http://www.w3.org/1999/xlink" x="0px" y="0px"
	 viewBox="0 0 58 58" style="enable-background:new 0 0 58 58;" xml:space="preserve">
<polygon style="fill:#599a42; stroke:#3d61ad" points="48,4 48,8 41,8 41,4 17,4 17,8 10,8 10,4 2,4 2,15 56,15 56,4 "/>
<polygon style="fill:transparent; stroke:#3d61ad" points="10,15 2,15 2,58 56,58 56,15 48,15 41,15 17,15 "/>
<path style="fill:#3d61ad;" d="M39,22h-2h-7h-2h-7h-2h-9v9v2v7v2v9h9h2h7h2h7h2h9v-9v-2v-7v-2v-9H39z M30,24h7v7h-7V24z M37,40h-7
	v-7h7V40z M21,33h7v7h-7V33z M21,24h7v7h-7V24z M12,24h7v7h-7V24z M12,33h7v7h-7V33z M19,49h-7v-7h7V49z M28,49h-7v-7h7V49z M37,49
	h-7v-7h7V49z M46,49h-7v-7h7V49z M46,40h-7v-7h7V40z M39,31v-7h7v7H39z"/>
<rect x="10" style="fill:#28384C;" width="7" height="8"/>
<rect x="41" style="fill:#28384C;" width="7" height="8"/>
<rect x="30" y="33" style="fill:#7fc241;" width="7" height="7"/>
</svg>
